src/icons/migration-guides.svg

<svg width="64" height="64" viewBox="0 0 64 64"  xmlns="http://www.w3.org/2000/svg"><path clip-rule="evenodd" d="M51.4372 57.0486H40.0506L37.7169 53.0486H49.4372V25.2045L35.4559 25.1468L33.4642 23.1468V9.10795L17.4106 9.10796V37.9861H13.4106V7.10796L15.4106 5.10796H35.4642L36.8842 5.69956L52.8572 21.8043L53.4372 23.2127V55.0486L51.4372 57.0486ZM37.4642 11.9646V21.1551L46.617 21.1928L37.4642 11.9646Z"/><path d="M17.4106 60.5137C20.0882 60.5137 22.2588 58.3431 22.2588 55.6655C22.2588 53.8247 21.2328 52.2235 19.7216 51.4025C19.6201 51.3474 19.5164 51.2958 19.4106 51.2478C18.8009 50.9714 18.1237 50.8174 17.4106 50.8174C16.8249 50.8174 16.2635 50.9212 15.7437 51.1116C15.6694 51.1388 15.596 51.1677 15.5235 51.1984C15.4857 51.2144 15.448 51.2309 15.4106 51.2478C13.7309 52.0095 12.5625 53.7011 12.5625 55.6655C12.5625 58.3431 14.7331 60.5137 17.4106 60.5137Z" /><path d="M27.8201 59.909L33.0331 50.9739L38.2464 59.909H27.8201Z" /><path d="M29.4521 24.7759V33.3807H20.8474V24.7759H29.4521Z" /><path d="M27.1496 41.2822V36.3807H23.1496V41.2822H15.4106V48.0745C16.0492 47.9067 16.7195 47.8174 17.4106 47.8174C18.1018 47.8174 18.7721 47.9067 19.4106 48.0745V45.2822H30.8889V48.462L34.8889 48.462V41.2822H27.1496Z"/></svg>

<svg xmlns="http://www.w3.org/2000/svg" width="64" height="64" viewBox="0 0 64 64"><path d="M51.437 57.049H40.051l-2.334-4h11.72V25.205l-13.981-.058-1.992-2V9.108H17.411v28.878h-4V7.108l2-2h20.053l1.42.592 15.973 16.104.58 1.409v31.836zM37.464 11.965v9.19l9.153.038z" clip-rule="evenodd"/><path d="M17.41 60.514a4.848 4.848 0 1 0 0-9.697 4.848 4.848 0 0 0 0 9.697m10.41-.605 5.213-8.935 5.213 8.935zm1.632-35.133v8.605h-8.605v-8.605zM27.15 41.282v-4.901h-4v4.901h-7.74v6.793a8 8 0 0 1 2-.258c.692 0 1.362.09 2 .258v-2.793h11.48v3.18h4v-7.18z"/></svg>
